X:1
T: Bridge of Balater
C:Niel Gow
R:Strathspey
Q: 128
K:C
M:4/4
L:1/16
|:E2|C3E G3A c3G Aa3|gc3 g3e d4 d3e|C3E G3A c3G Aa3|"aka Mr. Fletcher's Delight"gc3 g3e c4 c2E2|
C3E G3A c3G Aa3|gc3 g3e d4 d3e|C3E G3A c3G Aa3|gc3 g3e c4 c2e'f'|
g3c e3c g3c fa3|gc3 g3e d4 d2ef|g3c e3c g3c fa3|gc3 e3d c4 c2ef|
g3c e3c g3c fa3|g3c agfe d4 d3e|C3E G3A c3G Aa3|gc3 g3e c4 c2:|
